svgs/regular/candy-bar.svg

<svg xmlns="http://www.w3.org/2000/svg" viewBox="0 0 640 512"><!--! Font Awesome Pro 6.6.0 by @fontawesome - https://fontawesome.com License - https://fontawesome.com/license (Commercial License) Copyright 2024 Fonticons, Inc. --><path d="M0 320l0-96 128 0 0 96L0 320zm0 64l0-32 128 0 0 96-64 0c-35.3 0-64-28.7-64-64zm288 64l-128 0 0-96 128 0 0-32-128 0 0-96 128 0 0-32-128 0 0-128 128 0 48 0 240 0c35.3 0 64 28.7 64 64l0 256c0 35.3-28.7 64-64 64l-240 0-48 0zM36.7 177C43.9 165 48 151 48 136c0-4-.3-7.9-.9-11.7c-1-7 6.2-14.2 13.1-13.1c3.8 .6 7.7 .9 11.7 .9c15 0 29-4.1 41-11.3c6.1-3.6 15 .4 15 7.4l0 51.8s0 0 0 0l0 32-8 0s0 0 0 0l-75.8 0c-7.1 0-11.1-9-7.4-15zM336 112l0 288 240 0c8.8 0 16-7.2 16-16l0-256c0-8.8-7.2-16-16-16l-240 0z"/></svg>

<svg xmlns="http://www.w3.org/2000/svg" viewBox="0 0 640 512"><!--! Font Awesome Pro 6.4.0 by @fontawesome - https://fontawesome.com License - https://fontawesome.com/license (Commercial License) Copyright 2023 Fonticons, Inc. --><path d="M0 320V224H128v96H0zm0 64V352H128v96H64c-35.3 0-64-28.7-64-64zm288 64H160V352H288V320H160V224H288V192H160V64H288h48H576c35.3 0 64 28.7 64 64V384c0 35.3-28.7 64-64 64H336 288zM36.7 177C43.9 165 48 151 48 136c0-4-.3-7.9-.9-11.7c-1-7 6.2-14.2 13.1-13.1c3.8 .6 7.7 .9 11.7 .9c15 0 29-4.1 41-11.3c6.1-3.6 15 .4 15 7.4V160h0v32h-8l0 0H44.2c-7.1 0-11.1-9-7.4-15zM336 112V400H576c8.8 0 16-7.2 16-16V128c0-8.8-7.2-16-16-16H336z"/></svg>
